X:364
T:U Rabina
Z:Simon Carlyle
Z:Jack Campin, http://www.campin.me.uk/
F:Jack Campin's Nine-Note Tunebook
% last edit 05-03-2013
S:Belf's Rumanian Orchestra, Feb 1912
G:Klezmer "khosidl" dance
M:4/4
L:1/8
Q:1/4=120
N:accelerate to around 180 after a few repeats
P:ABBCC
K:AMix
P:A
"A" z2 A2 A2 c2|"Gm"_B3  A  GF G2|"A" z2 A2  A2 c2|     _B3  A GF G2 |
"A" z2 A2 A2 A2|"Dm" d3  c _BA B2|"Gm"cd c2 _Bc B2|[1 "A"A_BAB A2 G2:|\
                                                   [2 "A"A8         ||
P:B
"Gm"d3  c d3  c|     d3  c _BA B2|"A" cd c2 _Bc B2|[1 "A"A_BAB A2 G2:|\
                                                   [2 "A"A8         ||
P:C
"Gm"GF G2 AG A2|    _BA B2  d4   |"A" cd c2 _Bc B2|[1 "A"A_BAB A2 G2:|\
                                                   [2 "A"A8         |]

